X:1
T: Mendocino Redwood
N:
C:Jonathan Jensen
S:Tune is: Woodlands Walk
A:
O:
R:
M:6/8
K:F
I:speed 180
%W: A1
% voice 1 (1 lines, 45 notes)
K:F
M:6/8
L:1/16
d2 e2 f2 |d4 d2 d2 c2 A2 d4 d2 d2 c2 A2 c2 A2 F2 G2 F2 E2 F2 E2 D2 d2 e2 f2 |d4 d2 d2 c2 A2 d4 d2 d2 c2 A2 c2 A2 F2 E2 D2 C2 D6 d2 e2 f2 |
%W: A2
% voice 1 (1 lines, 42 notes)
d4 d2 d2 c2 A2 d4 d2 d2 c2 A2 c2 A2 F2 G2 F2 E2 F2 E2 D2 d2 e2 f2 |d4 d2 d2 c2 A2 d4 d2 d2 c2 A2 c2 A2 F2 E2 D2 C2 D6 D2 E2 F2 |
%W: B1
% voice 1 (1 lines, 35 notes)
G4 G2 A4 A2 G4 G2 E2 F2 G2 A4 A2 B4 B2 A4 A2 D2 E2 F2 |G4 G2 A4 A2 G4 G2 c6 F2 E2 D2 E2 D2 C2 D6 D2 E2 F2 |
%W: B2
% voice 1 (1 lines, 32 notes)
G4 G2 A4 A2 G4 G2 E2 F2 G2 A4 A2 B4 B2 A4 A2 D2 E2 F2 |G4 G2 A4 A2 G4 G2 c6 F2 E2 D2 E2 D2 C2 D6 ||
